bundles/org.openhab.ui.habpanel/web/assets/icons/smarthome-set/temperature.svg

<?xml version="1.0" encoding="UTF-8" standalone="no"?>
<svg width="32px" height="32px" viewBox="0 0 32 32" version="1.1" xmlns="http://www.w3.org/2000/svg" xmlns:xlink="http://www.w3.org/1999/xlink" xmlns:sketch="http://www.bohemiancoding.com/sketch/ns">
    <!-- Generator: Sketch 3.3.2 (12043) - http://www.bohemiancoding.com/sketch -->
    <title>temperature</title>
    <desc>Created with Sketch.</desc>
    <defs></defs>
    <g id="flatten" stroke="none" stroke-width="1" fill="none" fill-rule="evenodd" sketch:type="MSPage">
        <g id="z-copy" sketch:type="MSArtboardGroup" transform="translate(-68.000000, -4.000000)" fill="#000000">
            <g id="temperature" sketch:type="MSLayerGroup" transform="translate(68.000000, 4.000000)">
                <path d="M10,11.7789307 C6.98979073,13.7416318 5,17.1384457 5,21 C5,27.0751322 9.92486775,32 16,32 C22.0751322,32 27,27.0751322 27,21 C27,17.1384457 25.0102093,13.7416318 22,11.7789307 L22,5.99867589 C22,2.68193801 19.3137085,0 16,0 C12.6930342,0 10,2.68569868 10,5.99867589 L10,11.7789307 L10,11.7789307 L10,11.7789307 Z M20,12.9355196 C22.963437,14.4082222 25,17.4662787 25,21 C25,25.9705627 20.9705627,30 16,30 C11.0294373,30 7,25.9705627 7,21 C7,17.4662787 9.03656304,14.4082222 12,12.9355196 L12,5.99867589 C12,3.79304107 13.794829,2 16,2 C18.2107313,2 20,3.78809918 20,5.99867589 L20,12.9355196 L20,12.9355196 L20,12.9355196 Z M14,13.7898787 C11.1085111,14.6504279 9,17.3289794 9,20.5 C9,24.3659932 12.1340068,27.5 16,27.5 C19.8659932,27.5 23,24.3659932 23,20.5 C23,17.3289794 20.8914889,14.6504279 18,13.7898787 L18,6.00585866 C18,4.89706013 17.1045695,4 16,4 C14.8877296,4 14,4.89805351 14,6.00585866 L14,13.7898787 L14,13.7898787 L14,13.7898787 Z M17,14.5829584 C19.8377133,15.0590365 22,17.5270037 22,20.5 C22,23.8137085 19.3137085,26.5 16,26.5 C12.6862915,26.5 10,23.8137085 10,20.5 C10,17.5270037 12.1622867,15.0590365 15,14.5829584 L15,6.00585866 C15,5.44641661 15.4439289,5 16,5 C16.5520479,5 17,5.44911059 17,6.00585866 L17,14.5829584 L17,14.5829584 L17,14.5829584 Z M17,24 C17,24.5 16,24.5 16,24.5 C13.790861,24.5 12,22.709139 12,20.5 C12,20.5 12,19.5 12.5,19.5 C13,19.5 13,20.1277791 13,20.5 C13,21.5 14.5,23.5 16,23.5 C16.7077999,23.5 17,23.5 17,24 L17,24 Z" sketch:type="MSShapeGroup"></path>
            </g>
        </g>
    </g>
</svg>

<svg width="32" height="32" xmlns="http://www.w3.org/2000/svg"><path d="M10 11.779A10.99 10.99 0 0 0 5 21c0 6.075 4.925 11 11 11s11-4.925 11-11a10.99 10.99 0 0 0-5-9.221v-5.78A5.997 5.997 0 0 0 16 0c-3.307 0-6 2.686-6 5.999v5.78Zm10 1.157a9 9 0 1 1-8 0V5.999A4.004 4.004 0 0 1 16 2c2.21 0 4 1.788 4 3.999v6.937Zm-6 .854a7 7 0 1 0 4 0V6.006A2.002 2.002 0 0 0 16 4c-1.112 0-2 .898-2 2.006v7.784Zm3 .793A6.002 6.002 0 0 1 16 26.5a6 6 0 0 1-1-11.917V6.006A.998.998 0 0 1 16 5c.552 0 1 .45 1 1.006v8.577ZM17 24c0 .5-1 .5-1 .5a4 4 0 0 1-4-4s0-1 .5-1 .5.628.5 1c0 1 1.5 3 3 3 .708 0 1 0 1 .5Z" fill="#000" fill-rule="evenodd"/></svg>
